X:2
T:La Mau Marideio
M:3/4
L:1/4
K:G
G G G | d d d  | (c d) e       | d2 c   |
c B A | (G2 A) | A A (c3/2 B/) | A2     |
G G G | d d d  | (c d) e       | (d2 c) |
c B A | B d2   | c2  F         | G z2   |
